X:1
T:The Saucy Sailor
M:3/4
L:1/8
K:D
 GG|G-F D2 GG|G-F D2 FG| A2 d2=c-_B| A4 d=c|A-G F2 AG| FE D2 FF| G2E-D =C2|\
 D4||
